!!!OTL: Verh&auml;ngnisvolle Trennung (19a), S.82
!!!id: T0133
**kern
*clefG2
*k[b-]
*F:
{8f
=1
8f
8a
4cc
8a
8cc
=2
8dd
8b-
4b-}
=3
{8a
8cc
=4
8a
8a
4a
8g
8a
=5
8b-
8g
4g
4f}
=6yy
8r
=7
{8f
=8
8f
8a
4cc
8a
8cc
=9
8dd
8b-
4b-
8a}
=10
{8cc
=11
8a
8a
4a
8g
8a
=12
8b-
8g
4g
4f}
=13yy
8r
=14
{8f
=15
8f
8a
4cc
8a
8cc
=16
8dd
8b-
4b-
8a}
=17
{8cc
=18
8a
8a
4a
8g
8a
=19
8b-
8g
4g
4f}
==
*-
!!!minrhy: 8
!!!meters: 3/4 4/4 ]  ZZ[6
!!!cut: Verh&auml;ngnisvolle Trennung (19a), S.82
!!!reg: Luxemburg
!!!trd: Singendes Volk, Esch-Alzette 1937 posth.
!!!rhy1: X  XXX_XX  XXX_
!!!rhy2: XX  XXX_XX  XXX_X_0
!!!key: T0133  08  F 3/4 4/4 ]  ZZ[6
!!!mod: SECHSTONSKALA DUR ?]  AMBITUS[6
!!!kad: 413131
!!!akz: 16_341_16_341_16_34_
!!!fot: 'a__b__av_c__av_c__
!!!for: 'a__aw_aw_aw_aw_aw_
!!!fok: '^a_\__^a_Sd_^a_Sd_
!! PHRAS[AUFTAKTIG]
!!!fkt: Liebeslieder
!!!bem1: Wechsel von 3/4 und 4/4;
!!!bem2: Rammeldingen, fff Wagener, 17.2.1934
!! THILL, Mathias:
!! PR[31] 2K[4] 2G[16] 3K[2] 3G[6] 4A[4] 4Ü[0] 5A[0] 6K[0] 6G[0]
!! 7K[0] 7G[0] 8A[0] MEHR[0] SI[33] ABS[49] SR[20] SP[12]
!! ST[12] 2k[2] 2g[22] 3k[6] 3g[2] 4d[4] 4ü[0] 5d[0] 6k[0] 6g[0]
!! 7k[0] 7g[0] 8d[0] mehr[0] si[37] dm[-4] sr[24] sp[12]
!! 1F[7] 2F[71] 3F[9] 4F[0] LF[0] 2P[0] 3P[13] 4P[0] TRI[0] DF[4] AB[55]
!! TF[0] U3K[0] U3[0] U4[0] U4Ü[0] U5[0] U6K[0] U6[0] U7K[0] U7[0]
!! N1[0] N2K[0] N2[4] N3K[0] N3[8] N4[14] N4Ü[0] N5[26] N6K[0] N6[28]
!!!n7k: 0] N7[14] O1[6] O2K[0] O2[0] O3K[0] O3[0] HÖ[0
!!!RNB: symbol: &auml;      = a umlaut  (UTF-8: Å„)
